!! Cantigas de Santa Maria, No. 80
!! Transcribed by Higinio Angle/s
!! From Higinio Angle/s, "La Mu/sica de las Cantigas de Santa Mari/a
!! del rey Alfonso el Sabio", Barcelona: Biblioteca Central, 1943
**kern	**text
*M3/4	*Galician
*k[]	*
4a	de
=1	.
2cc	gra-
(8dd	-c5a
8ee)	.
=2	.
(4dd	che~-
4cc	.
8cc	.
8b)	.
(8a	-a
8g)	.
=3	.
(8a	e
8g	.
4f)	.
(8f	d'a-
8g	.
4a)	.
=4	.
(8a	.
8g	.
4f),	-mor
(8f	de
8e)	.
=5	.
2d	Deus,
(8e	a-
8f	.
4g)	.
=6	.
(8f	-cor-
8e	.
4d)	.
(8c	-re-
8d)	.
=7	.
2f	-nos,
8f	Se-
8g	.
=8	.
2a,	-nnor.
4a	Sanc-
=9	.
2cc	-ta
(8dd	Ma-
8ee)	.
=10	.
(4dd	-ri-
4cc	.
8cc	.
8b)	.
8a	-a,
8g	.
=11	.
(8a	se
8g	.
4f)	.
8f	te
8g	.
=12	.
2a,	praz,
4a	pois
=13	.
2cc	nos-
8dd	-so
8ee	.
=14	.
(4dd	ben
4cc	.
8cc	.
8b)	.
8a	tod'
8g	.
=15	.
(8a	en
8g	.
4f)	.
8f	ti
8g	.
=16	.
2a,	jaz,
4a	e
=17	.
2cc	que
8dd	teu
8ee	.
=18	.
(4dd	Fi-
4cc	.
8cc	.
8b)	.
8a	-llo
8g	.
=19	.
(8a	sem-
8g	.
4f)	.
(8f	-pre
8g	.
4a)	.
=20	.
(8a	faz
8g	.
4f),	.
=21	.
(4g	por
4f	.
8f	.
8e	.
=22	.
2d	ti
(8e	o
8f	.
4g)	.
=34	.
(8f	de
8e	.
4d)	.
8c	que
8d	.
=35	.
2f	a/s
8f	sa-
8g	.
=36	.
2a	-bor.
==	==
*-	*-
